Suru++-Ubuntu/apps/scalable/latex.svg

<svg width="256" height="256" version="1.1" viewBox="0 0 67.73 67.73" xmlns="http://www.w3.org/2000/svg" xmlns:xlink="http://www.w3.org/1999/xlink">
 <defs>
  <linearGradient id="linearGradient1108" x1="296" x2="296" y1="-212" y2="236" gradientUnits="userSpaceOnUse">
   <stop style="stop-color:#ffffff" offset="0"/>
   <stop style="stop-color:#ffffff;stop-opacity:.09803922" offset=".125"/>
   <stop style="stop-color:#000000;stop-opacity:.09803922" offset=".925"/>
   <stop style="stop-color:#000000;stop-opacity:.49803922" offset="1"/>
  </linearGradient>
  <clipPath id="clipPath1082-3-361">
   <path d="M 361.9375,-212 C 507.2348,-212 528,-191.28677 528,-46.125 V 70.125 C 528,215.28618 507.2348,236 361.9375,236 H 214.0625 C 68.7652,236 48,215.28618 48,70.125 V -46.125 C 48,-191.28677 68.7652,-212 214.0625,-212 Z" style="fill:#8c59d9"/>
  </clipPath>
  <filter id="filter4569" x="-.01" y="-.01" width="1.023" height="1.025" style="color-interpolation-filters:sRGB">
   <feGaussianBlur stdDeviation="1.16"/>
  </filter>
  <filter id="filter939" x="-.02" y="-.03" width="1.046" height="1.05" style="color-interpolation-filters:sRGB">
   <feGaussianBlur stdDeviation="2.32"/>
  </filter>
  <filter id="filter4031" x="-.04" y="-.07" width="1.074" height="1.138" style="color-interpolation-filters:sRGB">
   <feGaussianBlur stdDeviation="2.697"/>
  </filter>
 </defs>
 <g transform="translate(0,-229.26666)">
  <path transform="matrix(.26970779 0 0 .26970779 -1.9098094e-8 231.46531)" d="m162.53675 5.5680001c72.64865 0 83.03125 10.356615 83.03125 82.937505v58.125005c0 72.58059-10.3826 82.9375-83.03125 82.9375h-73.937496c-72.648654 0-83.031254-10.35691-83.031254-82.9375v-58.125005c0-72.58089 10.3826-82.937505 83.031254-82.937505z" style="filter:url(#filter939);opacity:.2"/>
  <path d="m43.837429 232.42763c19.593907 0 22.394176 2.79326 22.394176 22.36889v15.67677c0 19.57555-2.800269 22.36889-22.394176 22.36889h-19.941519c-19.593909 0-22.394177-2.79334-22.394177-22.36889v-15.67677c0-19.57563 2.8002682-22.36889 22.394177-22.36889z" style="fill:none;opacity:.1;stroke-linecap:round;stroke-linejoin:round;stroke-width:1.0788311;stroke:#000000"/>
  <path transform="matrix(.26970779 0 0 .26970779 -1.9098094e-8 231.46531)" d="m162.53675 3.5680001c72.64865 0 83.03125 10.356615 83.03125 82.937505v58.125005c0 72.58059-10.3826 82.9375-83.03125 82.9375h-73.937496c-72.648654 0-83.031254-10.35691-83.031254-82.9375v-58.125005c0-72.58089 10.3826-82.937505 83.031254-82.937505z" style="filter:url(#filter4569);opacity:.1"/>
  <path d="m43.837426 232.42763c19.593907 0 22.394175 2.79326 22.394175 22.36889v15.67677c0 19.57555-2.800268 22.36889-22.394175 22.36889h-19.94152c-19.593907 0-22.394175-2.79334-22.394175-22.36889v-15.67677c0-19.57563 2.8002682-22.36889 22.394175-22.36889z" style="fill:#a4c639"/>
  <path transform="matrix(.1348539 0 0 .1348539 -4.9712559 261.01666)" d="M 361.9375,-212 C 507.2348,-212 528,-191.28677 528,-46.125 V 70.125 C 528,215.28618 507.2348,236 361.9375,236 H 214.0625 C 68.7652,236 48,215.28618 48,70.125 V -46.125 C 48,-191.28677 68.7652,-212 214.0625,-212 Z" clip-path="url(#clipPath1082-3-361)" style="fill:none;opacity:.4;stroke-linecap:round;stroke-linejoin:round;stroke-width:8;stroke:url(#linearGradient1108)"/>
  <path d="m33.866666 232.42763v60.41455h9.970761c19.593907 0 22.394175-2.79334 22.394175-22.36889v-15.67677c0-19.57563-2.800268-22.36889-22.394175-22.36889z" style="fill:#ffffff;opacity:.1"/>
  <path d="m23.895907 292.84218c-19.593907 0-22.394176-2.79326-22.394176-22.36889v-7.83838h64.729871v7.83838c0 19.57563-2.800268 22.36889-22.394175 22.36889z" style="fill:#ffffff;opacity:.1"/>
  <g transform="matrix(.26458333 0 0 .26458333 37.648262 235.36534)" style="fill:#e9ecde;filter:url(#filter4031);opacity:.8">
   <g transform="matrix(4.2221198,0,0,4.2221198,-102.09796,49.894221)" style="fill:#e9ecde">
    <path d="m14.718 0.0350342h-14.300001l-0.417999 5.4769858h0.445c0.319999-4.10199 0.672-4.820003 4.512-4.820003h1.367c0.473 0.074035 0.473 0.375003 0.473 0.945003v13.47998c0 0.895-0.075 1.168-2.161 1.168h-0.703v0.5981c1.188-0.0231 2.426-0.0471 3.641-0.0471 1.211 0 2.453 0.024 3.64 0.0471v-0.5981h-0.691c-2.05501 0-2.129-0.273-2.129-1.168v-13.47998c0-0.54699 0-0.84399 0.446-0.945003h1.359c3.789 0 4.16 0.713993 4.48 4.820003h0.446" style="fill:#e9ecde"/>
    <path d="m27.144 16.02h-0.445c-0.543 3.672-0.863 5.668-5.219 5.668h-3.437c-0.989 0-1.036-0.125-1.036-0.977v-6.922h2.336c2.336 0 2.559 0.856 2.559 2.946h0.398v-6.442h-0.398c0 2.055-0.223 2.895-2.559 2.895h-2.336v-6.13697c0-0.836 0.047-0.961 1.036-0.961h3.386c3.832 0 4.278 1.52301 4.625 4.79697h0.446l-0.594-5.47697h-12.539v0.68c1.754 0 2.035 0 2.035 1.11297v13.364c0 1.1131-0.277 1.1131-2.035 1.1131v0.5979h12.887" style="fill:#e9ecde"/>
    <path d="m34.233244 7.3570536s0.04907-0.083388 0.02966-0.050396c-0.02966 0.050396 2.756203-4.3585141 3.221096-5.0916276 0.367-0.52002 1.113-1.59003 3.145-1.617008v-0.598022c-0.567 0.0469971-1.508 0.0469971-2.102 0.0469971-0.816 0-1.832 0-2.449-0.0469971v0.598022c0.793 0.073975 0.988 0.570008 0.988 0.968998 0 0.29602-0.121 0.49603-0.297 0.742l-3.269 4.74201-3.664-5.36298c-0.172-0.27002-0.196-0.34802-0.196-0.422 0-0.22302 0.27-0.645017 1.09-0.668028v-0.598022c-0.793 0.0469971-2.004 0.0469971-2.82 0.0469971-0.641 0-1.879 0-2.477-0.0469971v0.598022c1.36 0 1.805 0.051026 2.352 0.820008l4.777 7.01599-4.308 6.29308c-1.063 1.539-2.672 1.5659-3.145 1.5659v0.5981c0.566-0.047 1.508-0.047 2.102-0.047 0.668 0 1.832 0 2.449 0.047v-0.5981c-0.766-0.0739-0.988-0.57-0.988-0.969 0-0.32 0.121-0.496 0.246-0.672l3.961-5.78097 4.308 6.33197c0.195 0.2741 0.195 0.348 0.195 0.422 0 0.195-0.222 0.621-1.089 0.672v0.598c0.793-0.047 2.004-0.047 2.82-0.047 0.641 0 1.879 0 2.48 0.047v-0.598c-1.586 0-1.836-0.121-2.328-0.8199" style="fill:#e9ecde"/>
   </g>
  </g>
  <g transform="matrix(.26458333 0 0 .26458333 37.648262 235.36534)">
   <g transform="matrix(4.2221198,0,0,4.2221198,-102.09796,49.894221)" style="fill:#00411f;stroke:#00411f">
    <path d="m14.718 0.0350342h-14.300001l-0.417999 5.4769858h0.445c0.319999-4.10199 0.672-4.820003 4.512-4.820003h1.367c0.473 0.074035 0.473 0.375003 0.473 0.945003v13.47998c0 0.895-0.075 1.168-2.161 1.168h-0.703v0.5981c1.188-0.0231 2.426-0.0471 3.641-0.0471 1.211 0 2.453 0.024 3.64 0.0471v-0.5981h-0.691c-2.05501 0-2.129-0.273-2.129-1.168v-13.47998c0-0.54699 0-0.84399 0.446-0.945003h1.359c3.789 0 4.16 0.713993 4.48 4.820003h0.446" style="fill:#00411f"/>
    <path d="m27.144 16.02h-0.445c-0.543 3.672-0.863 5.668-5.219 5.668h-3.437c-0.989 0-1.036-0.125-1.036-0.977v-6.922h2.336c2.336 0 2.559 0.856 2.559 2.946h0.398v-6.442h-0.398c0 2.055-0.223 2.895-2.559 2.895h-2.336v-6.13697c0-0.836 0.047-0.961 1.036-0.961h3.386c3.832 0 4.278 1.52301 4.625 4.79697h0.446l-0.594-5.47697h-12.539v0.68c1.754 0 2.035 0 2.035 1.11297v13.364c0 1.1131-0.277 1.1131-2.035 1.1131v0.5979h12.887" style="fill:#00411f"/>
    <path d="m34.233244 7.3570536s0.04907-0.083388 0.02966-0.050396c-0.02966 0.050396 2.756203-4.3585141 3.221096-5.0916276 0.367-0.52002 1.113-1.59003 3.145-1.617008v-0.598022c-0.567 0.0469971-1.508 0.0469971-2.102 0.0469971-0.816 0-1.832 0-2.449-0.0469971v0.598022c0.793 0.073975 0.988 0.570008 0.988 0.968998 0 0.29602-0.121 0.49603-0.297 0.742l-3.269 4.74201-3.664-5.36298c-0.172-0.27002-0.196-0.34802-0.196-0.422 0-0.22302 0.27-0.645017 1.09-0.668028v-0.598022c-0.793 0.0469971-2.004 0.0469971-2.82 0.0469971-0.641 0-1.879 0-2.477-0.0469971v0.598022c1.36 0 1.805 0.051026 2.352 0.820008l4.777 7.01599-4.308 6.29308c-1.063 1.539-2.672 1.5659-3.145 1.5659v0.5981c0.566-0.047 1.508-0.047 2.102-0.047 0.668 0 1.832 0 2.449 0.047v-0.5981c-0.766-0.0739-0.988-0.57-0.988-0.969 0-0.32 0.121-0.496 0.246-0.672l3.961-5.78097 4.308 6.33197c0.195 0.2741 0.195 0.348 0.195 0.422 0 0.195-0.222 0.621-1.089 0.672v0.598c0.793-0.047 2.004-0.047 2.82-0.047 0.641 0 1.879 0 2.48 0.047v-0.598c-1.586 0-1.836-0.121-2.328-0.8199" style="fill:#00411f"/>
   </g>
  </g>
 </g>
</svg>

<svg xmlns="http://www.w3.org/2000/svg" xmlns:xlink="http://www.w3.org/1999/xlink" width="256" height="256" version="1.1" viewBox="0 0 67.73 67.73">
 <defs>
  <linearGradient id="linearGradient1108" x1="296" x2="296" y1="-212" y2="236" gradientUnits="userSpaceOnUse" xlink:href="#linearGradient1013"/>
  <linearGradient id="linearGradient1013">
   <stop offset="0" style="stop-color:#ffffff"/>
   <stop style="stop-color:#ffffff;stop-opacity:0.09803922" offset=".125"/>
   <stop style="stop-color:#000000;stop-opacity:0.09803922" offset=".925"/>
   <stop offset="1" style="stop-color:#000000;stop-opacity:0.49803922"/>
  </linearGradient>
  <clipPath id="clipPath1082-3-361" clipPathUnits="userSpaceOnUse">
   <path d="M 361.9375,-212 C 507.2348,-212 528,-191.28677 528,-46.125 V 70.125 C 528,215.28618 507.2348,236 361.9375,236 H 214.0625 C 68.7652,236 48,215.28618 48,70.125 V -46.125 C 48,-191.28677 68.7652,-212 214.0625,-212 Z" style="fill:#8c59d9"/>
  </clipPath>
  <filter style="color-interpolation-filters:sRGB" id="filter4569" width="1.023" height="1.025" x="-.01" y="-.01">
   <feGaussianBlur stdDeviation="1.16"/>
  </filter>
  <filter style="color-interpolation-filters:sRGB" id="filter939" width="1.046" height="1.05" x="-.02" y="-.03">
   <feGaussianBlur stdDeviation="2.32"/>
  </filter>
  <filter style="color-interpolation-filters:sRGB" id="filter4031" width="1.074" height="1.138" x="-.04" y="-.07">
   <feGaussianBlur stdDeviation="2.697"/>
  </filter>
 </defs>
 <g transform="translate(0,-229.26666)">
  <path style="opacity:0.2;filter:url(#filter939)" d="m 162.53675,5.5680001 c 72.64865,0 83.03125,10.3566149 83.03125,82.9375049 v 58.125005 c 0,72.58059 -10.3826,82.9375 -83.03125,82.9375 H 88.599254 C 15.9506,229.56801 5.568,219.2111 5.568,146.63051 V 88.505505 c 0,-72.58089 10.3826,-82.9375049 83.031254,-82.9375049 z" transform="matrix(0.26970779,0,0,0.26970779,-1.9098094e-8,231.46531)"/>
  <path d="m 43.837429,232.42763 c 19.593907,0 22.394176,2.79326 22.394176,22.36889 v 15.67677 c 0,19.57555 -2.800269,22.36889 -22.394176,22.36889 H 23.89591 c -19.5939088,0 -22.394177,-2.79334 -22.394177,-22.36889 v -15.67677 c 0,-19.57563 2.8002682,-22.36889 22.394177,-22.36889 z" style="opacity:0.1;fill:none;stroke:#000000;stroke-width:1.07883108;stroke-linecap:round;stroke-linejoin:round"/>
  <path d="m 162.53675,3.5680001 c 72.64865,0 83.03125,10.3566149 83.03125,82.9375049 v 58.125005 c 0,72.58059 -10.3826,82.9375 -83.03125,82.9375 H 88.599254 C 15.9506,227.56801 5.568,217.2111 5.568,144.63051 V 86.505505 c 0,-72.58089 10.3826,-82.9375049 83.031254,-82.9375049 z" transform="matrix(0.26970779,0,0,0.26970779,-1.9098094e-8,231.46531)" style="opacity:0.1;filter:url(#filter4569)"/>
  <path style="fill:#a4c639" d="m 43.837426,232.42763 c 19.593907,0 22.394175,2.79326 22.394175,22.36889 v 15.67677 c 0,19.57555 -2.800268,22.36889 -22.394175,22.36889 h -19.94152 c -19.5939067,0 -22.3941749,-2.79334 -22.3941749,-22.36889 v -15.67677 c 0,-19.57563 2.8002682,-22.36889 22.3941749,-22.36889 z"/>
  <path d="M 361.9375,-212 C 507.2348,-212 528,-191.28677 528,-46.125 V 70.125 C 528,215.28618 507.2348,236 361.9375,236 H 214.0625 C 68.7652,236 48,215.28618 48,70.125 V -46.125 C 48,-191.28677 68.7652,-212 214.0625,-212 Z" clip-path="url(#clipPath1082-3-361)" transform="matrix(0.1348539,0,0,0.1348539,-4.9712559,261.01666)" style="opacity:0.4;fill:none;stroke:url(#linearGradient1108);stroke-width:8;stroke-linecap:round;stroke-linejoin:round"/>
  <path style="opacity:0.1;fill:#ffffff" d="m 33.866666,232.42763 v 60.41455 h 9.970761 c 19.593907,0 22.394175,-2.79334 22.394175,-22.36889 v -15.67677 c 0,-19.57563 -2.800268,-22.36889 -22.394175,-22.36889 z"/>
  <path style="opacity:0.1;fill:#ffffff" d="m 23.895907,292.84218 c -19.5939074,0 -22.3941756,-2.79326 -22.3941756,-22.36889 v -7.83838 H 66.231602 v 7.83838 c 0,19.57563 -2.800268,22.36889 -22.394175,22.36889 z"/>
  <g style="opacity:0.8;fill:#e9ecde;filter:url(#filter4031)" transform="matrix(0.26458333,0,0,0.26458333,37.648262,235.36534)">
   <g style="fill:#e9ecde" transform="matrix(4.2221198,0,0,4.2221198,-102.09796,49.894221)">
    <path style="fill:#e9ecde" d="M 14.718,0.0350342 H 0.417999 L 0,5.51202 H 0.445 C 0.764999,1.41003 1.117,0.692017 4.957,0.692017 c 0.445,0 1.168,0 1.367,0 C 6.797,0.766052 6.797,1.06702 6.797,1.63702 V 15.117 c 0,0.895 -0.075,1.168 -2.161,1.168 H 3.933 v 0.5981 C 5.121,16.86 6.359,16.836 7.574,16.836 c 1.211,0 2.453,0.024 3.64,0.0471 V 16.285 h -0.691 c -2.05501,0 -2.129,-0.273 -2.129,-1.168 V 1.63702 c 0,-0.54699 0,-0.84399 0.446,-0.945003 0.195,0 0.91401,0 1.359,0 3.789,0 4.16,0.713993 4.48,4.820003 h 0.446"/>
    <path style="fill:#e9ecde" d="m 27.144,16.02 h -0.445 c -0.543,3.672 -0.863,5.668 -5.219,5.668 h -3.437 c -0.989,0 -1.036,-0.125 -1.036,-0.977 v -6.922 h 2.336 c 2.336,0 2.559,0.856 2.559,2.946 H 22.3 v -6.442 h -0.398 c 0,2.055 -0.223,2.895 -2.559,2.895 H 17.007 V 7.05103 c 0,-0.836 0.047,-0.961 1.036,-0.961 h 3.386 c 3.832,0 4.278,1.52301 4.625,4.79697 H 26.5 L 25.906,5.41003 H 13.367 v 0.68 c 1.754,0 2.035,0 2.035,1.11297 v 13.364 c 0,1.1131 -0.277,1.1131 -2.035,1.1131 v 0.5979 h 12.887"/>
    <path style="fill:#e9ecde" d="m 34.233244,7.3570536 c 0,0 0.04907,-0.083388 0.02966,-0.050396 C 34.233244,7.3570536 37.019107,2.9481435 37.484,2.21503 37.851,1.69501 38.597,0.625 40.629,0.598022 V 0 c -0.567,0.0469971 -1.508,0.0469971 -2.102,0.0469971 -0.816,0 -1.832,0 -2.449,-0.0469971 v 0.598022 c 0.793,0.073975 0.988,0.570008 0.988,0.968998 0,0.29602 -0.121,0.49603 -0.297,0.742 L 33.5,7.05103 29.836,1.68805 C 29.664,1.41803 29.64,1.34003 29.64,1.26605 c 0,-0.22302 0.27,-0.645017 1.09,-0.668028 V 0 c -0.793,0.0469971 -2.004,0.0469971 -2.82,0.0469971 -0.641,0 -1.879,0 -2.477,-0.0469971 v 0.598022 c 1.36,0 1.805,0.051026 2.352,0.820008 l 4.777,7.01599 -4.308,6.29308 c -1.063,1.539 -2.672,1.5659 -3.145,1.5659 v 0.5981 c 0.566,-0.047 1.508,-0.047 2.102,-0.047 0.668,0 1.832,0 2.449,0.047 V 16.293 c -0.766,-0.0739 -0.988,-0.57 -0.988,-0.969 0,-0.32 0.121,-0.496 0.246,-0.672 l 3.961,-5.78097 4.308,6.33197 c 0.195,0.2741 0.195,0.348 0.195,0.422 0,0.195 -0.222,0.621 -1.089,0.672 v 0.598 c 0.793,-0.047 2.004,-0.047 2.82,-0.047 0.641,0 1.879,0 2.48,0.047 v -0.598 c -1.586,0 -1.836,-0.121 -2.328,-0.8199"/>
   </g>
  </g>
  <g transform="matrix(0.26458333,0,0,0.26458333,37.648262,235.36534)">
   <g transform="matrix(4.2221198,0,0,4.2221198,-102.09796,49.894221)" style="fill:#00411f;stroke:#00411f">
    <path d="M 14.718,0.0350342 H 0.417999 L 0,5.51202 H 0.445 C 0.764999,1.41003 1.117,0.692017 4.957,0.692017 c 0.445,0 1.168,0 1.367,0 C 6.797,0.766052 6.797,1.06702 6.797,1.63702 V 15.117 c 0,0.895 -0.075,1.168 -2.161,1.168 H 3.933 v 0.5981 C 5.121,16.86 6.359,16.836 7.574,16.836 c 1.211,0 2.453,0.024 3.64,0.0471 V 16.285 h -0.691 c -2.05501,0 -2.129,-0.273 -2.129,-1.168 V 1.63702 c 0,-0.54699 0,-0.84399 0.446,-0.945003 0.195,0 0.91401,0 1.359,0 3.789,0 4.16,0.713993 4.48,4.820003 h 0.446" style="fill:#00411f"/>
    <path d="m 27.144,16.02 h -0.445 c -0.543,3.672 -0.863,5.668 -5.219,5.668 h -3.437 c -0.989,0 -1.036,-0.125 -1.036,-0.977 v -6.922 h 2.336 c 2.336,0 2.559,0.856 2.559,2.946 H 22.3 v -6.442 h -0.398 c 0,2.055 -0.223,2.895 -2.559,2.895 H 17.007 V 7.05103 c 0,-0.836 0.047,-0.961 1.036,-0.961 h 3.386 c 3.832,0 4.278,1.52301 4.625,4.79697 H 26.5 L 25.906,5.41003 H 13.367 v 0.68 c 1.754,0 2.035,0 2.035,1.11297 v 13.364 c 0,1.1131 -0.277,1.1131 -2.035,1.1131 v 0.5979 h 12.887" style="fill:#00411f"/>
    <path d="m 34.233244,7.3570536 c 0,0 0.04907,-0.083388 0.02966,-0.050396 C 34.233244,7.3570536 37.019107,2.9481435 37.484,2.21503 37.851,1.69501 38.597,0.625 40.629,0.598022 V 0 c -0.567,0.0469971 -1.508,0.0469971 -2.102,0.0469971 -0.816,0 -1.832,0 -2.449,-0.0469971 v 0.598022 c 0.793,0.073975 0.988,0.570008 0.988,0.968998 0,0.29602 -0.121,0.49603 -0.297,0.742 L 33.5,7.05103 29.836,1.68805 C 29.664,1.41803 29.64,1.34003 29.64,1.26605 c 0,-0.22302 0.27,-0.645017 1.09,-0.668028 V 0 c -0.793,0.0469971 -2.004,0.0469971 -2.82,0.0469971 -0.641,0 -1.879,0 -2.477,-0.0469971 v 0.598022 c 1.36,0 1.805,0.051026 2.352,0.820008 l 4.777,7.01599 -4.308,6.29308 c -1.063,1.539 -2.672,1.5659 -3.145,1.5659 v 0.5981 c 0.566,-0.047 1.508,-0.047 2.102,-0.047 0.668,0 1.832,0 2.449,0.047 V 16.293 c -0.766,-0.0739 -0.988,-0.57 -0.988,-0.969 0,-0.32 0.121,-0.496 0.246,-0.672 l 3.961,-5.78097 4.308,6.33197 c 0.195,0.2741 0.195,0.348 0.195,0.422 0,0.195 -0.222,0.621 -1.089,0.672 v 0.598 c 0.793,-0.047 2.004,-0.047 2.82,-0.047 0.641,0 1.879,0 2.48,0.047 v -0.598 c -1.586,0 -1.836,-0.121 -2.328,-0.8199" style="fill:#00411f"/>
   </g>
  </g>
 </g>
</svg>
